Split-Jeux.svg

<?xml version="1.0" encoding="UTF-8" standalone="no"?>
<!-- Created with Inkscape (http://www.inkscape.org/) -->

<svg
   width="210mm"
   height="297mm"
   viewBox="0 0 210 297"
   version="1.1"
   id="svg5"
   inkscape:version="1.2 (dc2aedaf03, 2022-05-15)"
   sodipodi:docname="Split-Jeux.svg"
   inkscape:export-filename="Split-Jeux.pdf"
   inkscape:export-xdpi="96"
   inkscape:export-ydpi="96"
   xmlns:inkscape="http://www.inkscape.org/namespaces/inkscape"
   xmlns:sodipodi="http://sodipodi.sourceforge.net/DTD/sodipodi-0.dtd"
   xmlns="http://www.w3.org/2000/svg"
   xmlns:svg="http://www.w3.org/2000/svg"
   xmlns:rdf="http://www.w3.org/1999/02/22-rdf-syntax-ns#"
   xmlns:cc="http://creativecommons.org/ns#"
   xmlns:dc="http://purl.org/dc/elements/1.1/">
  <metadata
     id="metadata46">
    <rdf:RDF>
      <cc:Work
         rdf:about="">
        <dc:format>image/svg+xml</dc:format>
        <dc:type
           rdf:resource="http://purl.org/dc/dcmitype/StillImage" />
      </cc:Work>
    </rdf:RDF>
  </metadata>
  <sodipodi:namedview
     id="namedview7"
     pagecolor="#ffffff"
     bordercolor="#666666"
     borderopacity="1.0"
     inkscape:pageshadow="2"
     inkscape:pageopacity="0.0"
     inkscape:pagecheckerboard="0"
     inkscape:document-units="mm"
     showgrid="false"
     inkscape:zoom="1.5411756"
     inkscape:cx="354.92386"
     inkscape:cy="221.58409"
     inkscape:window-width="1920"
     inkscape:window-height="1018"
     inkscape:window-x="-8"
     inkscape:window-y="-8"
     inkscape:window-maximized="1"
     inkscape:current-layer="layer1"
     inkscape:showpageshadow="2"
     inkscape:deskcolor="#d1d1d1" />
  <defs
     id="defs2">
    <marker
       style="overflow:visible"
       id="Scissors"
       refX="0"
       refY="0"
       orient="auto"
       inkscape:stockid="Scissors"
       inkscape:isstock="true">
      <path
         style="fill:context-stroke"
         d="M 9.0898857,-3.6061018 C 8.1198849,-4.7769976 6.3697607,-4.7358294 5.0623558,-4.2327734 l -8.2124046,3.0779029 c -2.3882933,-1.3067135 -4.7482873,-0.9325372 -4.7482873,-1.5687873 0,-0.4973164 0.4566662,-0.3883222 0.3883068,-1.6831941 -0.065635,-1.2432767 -1.3635771,-2.1630796 -2.5903987,-2.0816435 -1.227271,-0.00735 -2.499439,0.9331613 -2.510341,2.2300611 -0.09143,1.3063864 1.007209,2.5196896 2.306764,2.6052316 1.5223406,0.2266616 4.218258,-0.6955566 5.482945,1.57086006 -0.9422847,1.73825774 -2.6140244,1.74307674 -4.1255107,1.65607034 -1.2548743,-0.072235 -2.7620933,0.2873979 -3.3606483,1.5208605 -0.578367,1.1820862 -0.0112,2.8646022 1.316749,3.226412 1.3401912,0.4918277 3.1806689,-0.129711 3.4993722,-1.6707242 0.2456585,-1.187823 -0.5953659,-1.7459574 -0.2725074,-2.1771537 0.2436135,-0.32536 1.7907806,-0.1368452 4.5471053,-1.3748244 L 5.6763468,4.2330688 C 6.8000164,4.5467672 8.1730685,4.5362646 9.1684433,3.4313614 l -9.22008423,-3.48508362 z m -18.3078016,-1.900504 c 1.294559,0.7227998 1.1888392,2.6835702 -0.1564272,3.0632889 -1.2165179,0.423661 -2.7710269,-0.7589694 -2.3831779,-2.0774648 0.227148,-1.0818519 1.653387,-1.480632 2.5396051,-0.9858241 z m 0.056264,8.0173649 c 1.3508301,0.4988648 1.1214429,2.7844356 -0.2522207,3.091609 -0.9110594,0.3163391 -2.2135494,-0.1387976 -2.3056964,-1.2121394 -0.177609,-1.305055 1.356085,-2.4841482 2.5579171,-1.8794696 z"
         id="schere" />
    </marker>
    <rect
       x="111.75613"
       y="82.94569"
       width="81.887015"
       height="21.057329"
       id="rect9193" />
    <rect
       x="111.75613"
       y="82.94569"
       width="251.68989"
       height="23.91714"
       id="rect23629" />
    <rect
       x="111.75613"
       y="82.94569"
       width="251.68989"
       height="23.91714"
       id="rect27061" />
    <rect
       x="111.75613"
       y="82.94569"
       width="251.68989"
       height="23.91714"
       id="rect28825" />
    <rect
       x="111.75613"
       y="82.94569"
       width="251.68989"
       height="23.91714"
       id="rect28827" />
    <rect
       x="111.75613"
       y="82.94569"
       width="251.68989"
       height="23.91714"
       id="rect28837" />
  </defs>
  <g
     inkscape:label="Calque 1"
     inkscape:groupmode="layer"
     id="layer1">
    <rect
       style="opacity:1;fill:#cccccc;stroke:none;stroke-width:0.938354;stroke-linecap:round;stroke-linejoin:miter;stroke-miterlimit:4;stroke-dasharray:none;stroke-dashoffset:0"
       id="rect31"
       width="110"
       height="10"
       x="36.983795"
       y="34.023651"
       inkscape:export-filename="rect31.pdf"
       inkscape:export-xdpi="96"
       inkscape:export-ydpi="96" />
    <rect
       style="opacity:1;fill:#ffb380;stroke:none;stroke-width:0.894685;stroke-linecap:round;stroke-linejoin:miter;stroke-miterlimit:4;stroke-dasharray:none;stroke-dashoffset:0"
       id="rect167"
       width="100"
       height="10"
       x="34.517651"
       y="54.023651" />
    <rect
       style="opacity:1;fill:#87cdde;stroke:none;stroke-width:0.282924;stroke-linecap:round;stroke-linejoin:miter;stroke-miterlimit:4;stroke-dasharray:none;stroke-dashoffset:0"
       id="rect169"
       width="10"
       height="10"
       x="139.06816"
       y="54.023651" />
    <g
       id="g20799"
       transform="translate(6.2999996,-0.6442164)">
      <text
         xml:space="preserve"
         transform="matrix(0.26458333,0,0,0.26458333,46.486042,16.21125)"
         id="text9191"
         style="font-style:normal;font-weight:normal;font-size:13.3333px;line-height:1.25;font-family:sans-serif;letter-spacing:0px;word-spacing:0px;white-space:pre;shape-inside:url(#rect9193);display:inline;fill:#000000;fill-opacity:1;stroke:none"><tspan
           x="111.75586"
           y="95.076951"
           id="tspan2037"><tspan
             style="font-weight:bold;-inkscape-font-specification:'sans-serif Bold'"
             id="tspan2035">DONNÉES</tspan></tspan></text>
    </g>
    <g
       id="g23627"
       transform="translate(3.8338535,19.345776)">
      <text
         xml:space="preserve"
         transform="matrix(0.26458333,0,0,0.26458333,18.427216,16.21125)"
         id="text23625"
         style="font-style:normal;font-weight:normal;font-size:13.3333px;line-height:1.25;font-family:sans-serif;letter-spacing:0px;word-spacing:0px;white-space:pre;shape-inside:url(#rect23629);display:inline;fill:#000000;fill-opacity:1;stroke:none"><tspan
           x="111.75586"
           y="95.076951"
           id="tspan2041"><tspan
             style="font-weight:bold;-inkscape-font-specification:'sans-serif Bold'"
             id="tspan2039">ENTRAÎNEMENT &amp; OPTIMISATION</tspan></tspan></text>
    </g>
    <g
       id="g27059"
       transform="translate(56.220916,19.345776)">
      <text
         xml:space="preserve"
         transform="matrix(0.26458333,0,0,0.26458333,53.397681,16.21125)"
         id="text27057"
         style="font-style:normal;font-weight:normal;font-size:13.3333px;line-height:1.25;font-family:sans-serif;letter-spacing:0px;word-spacing:0px;white-space:pre;shape-inside:url(#rect27061);display:inline;fill:#000000;fill-opacity:1;stroke:none"><tspan
           x="111.75586"
           y="95.076951"
           id="tspan2045"><tspan
             style="font-weight:bold;-inkscape-font-specification:'sans-serif Bold'"
             id="tspan2043">ÉVAL</tspan></tspan></text>
    </g>
    <rect
       style="opacity:1;fill:#ffaaaa;stroke:none;stroke-width:0.848773;stroke-linecap:round;stroke-linejoin:miter;stroke-miterlimit:4;stroke-dasharray:none;stroke-dashoffset:0"
       id="rect28809"
       width="90"
       height="10"
       x="32.848446"
       y="74.023651" />
    <rect
       style="opacity:1;fill:#87cdde;stroke:none;stroke-width:0.282924;stroke-linecap:round;stroke-linejoin:miter;stroke-miterlimit:4;stroke-dasharray:none;stroke-dashoffset:0"
       id="rect28811"
       width="10"
       height="10"
       x="139.06816"
       y="74.023651" />
    <g
       id="g28817"
       transform="translate(2.164649,39.345776)">
      <text
         xml:space="preserve"
         transform="matrix(0.26458333,0,0,0.26458333,30.377903,16.21125)"
         id="text28815"
         style="font-style:normal;font-weight:normal;font-size:13.3333px;line-height:1.25;font-family:sans-serif;letter-spacing:0px;word-spacing:0px;white-space:pre;shape-inside:url(#rect28825);display:inline;fill:#000000;fill-opacity:1;stroke:none"><tspan
           x="111.75586"
           y="95.076951"
           id="tspan2049"><tspan
             style="font-weight:bold;-inkscape-font-specification:'sans-serif Bold'"
             id="tspan2047">ENTRAÎNEMENT</tspan></tspan></text>
    </g>
    <g
       id="g28823"
       transform="translate(56.220916,39.345776)">
      <text
         xml:space="preserve"
         transform="matrix(0.26458333,0,0,0.26458333,53.397681,16.21125)"
         id="text28821"
         style="font-style:normal;font-weight:normal;font-size:13.3333px;line-height:1.25;font-family:sans-serif;letter-spacing:0px;word-spacing:0px;white-space:pre;shape-inside:url(#rect28827);display:inline;fill:#000000;fill-opacity:1;stroke:none"><tspan
           x="111.75586"
           y="95.076951"
           id="tspan2053"><tspan
             style="font-weight:bold;-inkscape-font-specification:'sans-serif Bold'"
             id="tspan2051">ÉVAL</tspan></tspan></text>
    </g>
    <rect
       style="opacity:1;fill:#87de87;stroke:none;stroke-width:0.282924;stroke-linecap:round;stroke-linejoin:miter;stroke-miterlimit:4;stroke-dasharray:none;stroke-dashoffset:0"
       id="rect28829"
       width="10"
       height="10"
       x="125.9583"
       y="74.023651" />
    <g
       id="g28835"
       transform="translate(43.111053,39.345776)">
      <text
         xml:space="preserve"
         transform="matrix(0.26458333,0,0,0.26458333,53.701709,16.21125)"
         id="text28833"
         style="font-style:normal;font-weight:normal;font-size:13.3333px;line-height:1.25;font-family:sans-serif;letter-spacing:0px;word-spacing:0px;white-space:pre;shape-inside:url(#rect28837);display:inline;fill:#000000;fill-opacity:1;stroke:none"><tspan
           x="111.75586"
           y="95.076951"
           id="tspan2057"><tspan
             style="font-weight:bold;-inkscape-font-specification:'sans-serif Bold'"
             id="tspan2055">OPTI</tspan></tspan></text>
    </g>
    <path
       style="fill:none;stroke:#000000;stroke-width:0.264583;stroke-linecap:butt;stroke-linejoin:miter;stroke-miterlimit:4;stroke-dasharray:0.26458299, 0.79374898;stroke-dashoffset:0;stroke-opacity:1;marker-start:url(#Scissors);marker-mid:url(#Scissors)"
       d="M 136.9838,46.861748 V 34.023651"
       id="path32638"
       sodipodi:nodetypes="cc" />
    <path
       style="fill:none;stroke:#000000;stroke-width:0.264583;stroke-linecap:butt;stroke-linejoin:miter;stroke-miterlimit:4;stroke-dasharray:0.26458299,0.79374898;stroke-dashoffset:0;stroke-opacity:1;marker-start:url(#Scissors);marker-mid:url(#Scissors)"
       d="M 124.51765,66.861748 V 54.023651"
       id="path34121"
       sodipodi:nodetypes="cc" />
  </g>
</svg>

<?xml version="1.0" encoding="UTF-8" standalone="no"?>
<!-- Created with Inkscape (http://www.inkscape.org/) -->

<svg
   xmlns:dc="http://purl.org/dc/elements/1.1/"
   xmlns:cc="http://creativecommons.org/ns#"
   xmlns:rdf="http://www.w3.org/1999/02/22-rdf-syntax-ns#"
   xmlns:svg="http://www.w3.org/2000/svg"
   xmlns="http://www.w3.org/2000/svg"
   xmlns:sodipodi="http://sodipodi.sourceforge.net/DTD/sodipodi-0.dtd"
   xmlns:inkscape="http://www.inkscape.org/namespaces/inkscape"
   width="210mm"
   height="297mm"
   viewBox="0 0 210 297"
   version="1.1"
   id="svg5"
   inkscape:version="0.92.5 (2060ec1f9f, 2020-04-08)"
   sodipodi:docname="Split-Jeux.svg">
  <metadata
     id="metadata46">
    <rdf:RDF>
      <cc:Work
         rdf:about="">
        <dc:format>image/svg+xml</dc:format>
        <dc:type
           rdf:resource="http://purl.org/dc/dcmitype/StillImage" />
      </cc:Work>
    </rdf:RDF>
  </metadata>
  <sodipodi:namedview
     id="namedview7"
     pagecolor="#ffffff"
     bordercolor="#666666"
     borderopacity="1.0"
     inkscape:pageshadow="2"
     inkscape:pageopacity="0.0"
     inkscape:pagecheckerboard="0"
     inkscape:document-units="mm"
     showgrid="false"
     inkscape:zoom="1.5411756"
     inkscape:cx="221.90852"
     inkscape:cy="847.72948"
     inkscape:window-width="1887"
     inkscape:window-height="1056"
     inkscape:window-x="33"
     inkscape:window-y="0"
     inkscape:window-maximized="1"
     inkscape:current-layer="g23627" />
  <defs
     id="defs2">
    <marker
       style="overflow:visible"
       id="Scissors"
       refX="0.0"
       refY="0.0"
       orient="auto"
       inkscape:stockid="Scissors"
       inkscape:isstock="true">
      <path
         style="fill:context-stroke;"
         d="M 9.0898857,-3.6061018 C 8.1198849,-4.7769976 6.3697607,-4.7358294 5.0623558,-4.2327734 L -3.1500488,-1.1548705 C -5.5383421,-2.4615840 -7.8983361,-2.0874077 -7.8983361,-2.7236578 C -7.8983361,-3.2209742 -7.4416699,-3.1119800 -7.5100293,-4.4068519 C -7.5756648,-5.6501286 -8.8736064,-6.5699315 -10.100428,-6.4884954 C -11.327699,-6.4958500 -12.599867,-5.5553341 -12.610769,-4.2584343 C -12.702194,-2.9520479 -11.603560,-1.7387447 -10.304005,-1.6532027 C -8.7816644,-1.4265411 -6.0857470,-2.3487593 -4.8210600,-0.082342643 C -5.7633447,1.6559151 -7.4350844,1.6607341 -8.9465707,1.5737277 C -10.201445,1.5014928 -11.708664,1.8611256 -12.307219,3.0945882 C -12.885586,4.2766744 -12.318421,5.9591904 -10.990470,6.3210002 C -9.6502788,6.8128279 -7.8098011,6.1912892 -7.4910978,4.6502760 C -7.2454393,3.4624530 -8.0864637,2.9043186 -7.7636052,2.4731223 C -7.5199917,2.1477623 -5.9728246,2.3362771 -3.2164999,1.0982979 L 5.6763468,4.2330688 C 6.8000164,4.5467672 8.1730685,4.5362646 9.1684433,3.4313614 L -0.051640930,-0.053722219 L 9.0898857,-3.6061018 z M -9.2179159,-5.5066058 C -7.9233569,-4.7838060 -8.0290767,-2.8230356 -9.3743431,-2.4433169 C -10.590861,-2.0196559 -12.145370,-3.2022863 -11.757521,-4.5207817 C -11.530373,-5.6026336 -10.104134,-6.0014137 -9.2179159,-5.5066058 z M -9.1616516,2.5107591 C -7.8108215,3.0096239 -8.0402087,5.2951947 -9.4138723,5.6023681 C -10.324932,5.9187072 -11.627422,5.4635705 -11.719569,4.3902287 C -11.897178,3.0851737 -10.363484,1.9060805 -9.1616516,2.5107591 z "
         id="schere" />
    </marker>
    <rect
       x="111.75613"
       y="82.94569"
       width="81.887015"
       height="21.057329"
       id="rect9193" />
    <rect
       x="111.75613"
       y="82.94569"
       width="251.68989"
       height="23.91714"
       id="rect23629" />
    <rect
       x="111.75613"
       y="82.94569"
       width="251.68989"
       height="23.91714"
       id="rect27061" />
    <rect
       x="111.75613"
       y="82.94569"
       width="251.68989"
       height="23.91714"
       id="rect28825" />
    <rect
       x="111.75613"
       y="82.94569"
       width="251.68989"
       height="23.91714"
       id="rect28827" />
    <rect
       x="111.75613"
       y="82.94569"
       width="251.68989"
       height="23.91714"
       id="rect28837" />
  </defs>
  <g
     inkscape:label="Calque 1"
     inkscape:groupmode="layer"
     id="layer1">
    <rect
       style="opacity:1;fill:#cccccc;stroke:none;stroke-width:0.938354;stroke-linecap:round;stroke-linejoin:miter;stroke-miterlimit:4;stroke-dasharray:none;stroke-dashoffset:0"
       id="rect31"
       width="110"
       height="10"
       x="36.983795"
       y="34.023651" />
    <rect
       style="opacity:1;fill:#ffb380;stroke:none;stroke-width:0.894685;stroke-linecap:round;stroke-linejoin:miter;stroke-miterlimit:4;stroke-dasharray:none;stroke-dashoffset:0"
       id="rect167"
       width="100"
       height="10"
       x="34.517651"
       y="54.023651" />
    <rect
       style="opacity:1;fill:#87cdde;stroke:none;stroke-width:0.282924;stroke-linecap:round;stroke-linejoin:miter;stroke-miterlimit:4;stroke-dasharray:none;stroke-dashoffset:0"
       id="rect169"
       width="10"
       height="10"
       x="139.06816"
       y="54.023651" />
    <g
       id="g20799"
       transform="translate(6.2999996,-0.6442164)">
      <text
         xml:space="preserve"
         transform="matrix(0.26458333,0,0,0.26458333,46.486042,16.21125)"
         id="text9191"
         style="font-style:normal;font-weight:normal;font-size:13.3333px;line-height:1.25;font-family:sans-serif;letter-spacing:0px;word-spacing:0px;white-space:pre;shape-inside:url(#rect9193);fill:#000000;fill-opacity:1;stroke:none"><tspan
           x="111.75586"
           y="94.742158"
           id="tspan40057"><tspan
             style="font-weight:bold;-inkscape-font-specification:'sans-serif Bold'"
             id="tspan40055">DONNÉES</tspan></tspan></text>
    </g>
    <g
       id="g23627"
       transform="translate(3.8338535,19.345776)">
      <text
         xml:space="preserve"
         transform="matrix(0.26458333,0,0,0.26458333,18.427216,16.21125)"
         id="text23625"
         style="font-style:normal;font-weight:normal;font-size:13.33329964px;line-height:1.25;font-family:sans-serif;letter-spacing:0px;word-spacing:0px;white-space:pre;shape-inside:url(#rect23629);fill:#000000;fill-opacity:1;stroke:none"><tspan
           x="111.75586"
           y="94.742157"
           id="tspan40061"><tspan
             style="font-weight:bold;-inkscape-font-specification:'sans-serif Bold'"
             id="tspan40059">ENTRAÎNEMENT &amp; OPTIMISATION</tspan></tspan></text>
    </g>
    <g
       id="g27059"
       transform="translate(56.220916,19.345776)">
      <text
         xml:space="preserve"
         transform="matrix(0.26458333,0,0,0.26458333,53.397681,16.21125)"
         id="text27057"
         style="font-style:normal;font-weight:normal;font-size:13.3333px;line-height:1.25;font-family:sans-serif;letter-spacing:0px;word-spacing:0px;white-space:pre;shape-inside:url(#rect27061);fill:#000000;fill-opacity:1;stroke:none"><tspan
           x="111.75586"
           y="94.742158"
           id="tspan40065"><tspan
             style="font-weight:bold;-inkscape-font-specification:'sans-serif Bold'"
             id="tspan40063">ÉVAL</tspan></tspan></text>
    </g>
    <rect
       style="opacity:1;fill:#ffaaaa;stroke:none;stroke-width:0.848773;stroke-linecap:round;stroke-linejoin:miter;stroke-miterlimit:4;stroke-dasharray:none;stroke-dashoffset:0"
       id="rect28809"
       width="90"
       height="10"
       x="32.848446"
       y="74.023651" />
    <rect
       style="opacity:1;fill:#87cdde;stroke:none;stroke-width:0.282924;stroke-linecap:round;stroke-linejoin:miter;stroke-miterlimit:4;stroke-dasharray:none;stroke-dashoffset:0"
       id="rect28811"
       width="10"
       height="10"
       x="139.06816"
       y="74.023651" />
    <g
       id="g28817"
       transform="translate(2.164649,39.345776)">
      <text
         xml:space="preserve"
         transform="matrix(0.26458333,0,0,0.26458333,30.377903,16.21125)"
         id="text28815"
         style="font-style:normal;font-weight:normal;font-size:13.3333px;line-height:1.25;font-family:sans-serif;letter-spacing:0px;word-spacing:0px;white-space:pre;shape-inside:url(#rect28825);fill:#000000;fill-opacity:1;stroke:none"><tspan
           x="111.75586"
           y="94.742158"
           id="tspan40069"><tspan
             style="font-weight:bold;-inkscape-font-specification:'sans-serif Bold'"
             id="tspan40067">ENTRAÎNEMENT</tspan></tspan></text>
    </g>
    <g
       id="g28823"
       transform="translate(56.220916,39.345776)">
      <text
         xml:space="preserve"
         transform="matrix(0.26458333,0,0,0.26458333,53.397681,16.21125)"
         id="text28821"
         style="font-style:normal;font-weight:normal;font-size:13.3333px;line-height:1.25;font-family:sans-serif;letter-spacing:0px;word-spacing:0px;white-space:pre;shape-inside:url(#rect28827);fill:#000000;fill-opacity:1;stroke:none"><tspan
           x="111.75586"
           y="94.742158"
           id="tspan40073"><tspan
             style="font-weight:bold;-inkscape-font-specification:'sans-serif Bold'"
             id="tspan40071">ÉVAL</tspan></tspan></text>
    </g>
    <rect
       style="opacity:1;fill:#87de87;stroke:none;stroke-width:0.282924;stroke-linecap:round;stroke-linejoin:miter;stroke-miterlimit:4;stroke-dasharray:none;stroke-dashoffset:0"
       id="rect28829"
       width="10"
       height="10"
       x="125.9583"
       y="74.023651" />
    <g
       id="g28835"
       transform="translate(43.111053,39.345776)">
      <text
         xml:space="preserve"
         transform="matrix(0.26458333,0,0,0.26458333,53.701709,16.21125)"
         id="text28833"
         style="font-style:normal;font-weight:normal;font-size:13.3333px;line-height:1.25;font-family:sans-serif;letter-spacing:0px;word-spacing:0px;white-space:pre;shape-inside:url(#rect28837);fill:#000000;fill-opacity:1;stroke:none"><tspan
           x="111.75586"
           y="94.742158"
           id="tspan40077"><tspan
             style="font-weight:bold;-inkscape-font-specification:'sans-serif Bold'"
             id="tspan40075">OPTI</tspan></tspan></text>
    </g>
    <path
       style="fill:none;stroke:#000000;stroke-width:0.264583;stroke-linecap:butt;stroke-linejoin:miter;stroke-miterlimit:4;stroke-dasharray:0.264583, 0.529166;stroke-dashoffset:0;stroke-opacity:1;marker-start:url(#Scissors);marker-mid:url(#Scissors)"
       d="M 136.9838,46.861748 V 34.023651"
       id="path32638"
       sodipodi:nodetypes="cc" />
    <path
       style="fill:none;stroke:#000000;stroke-width:0.264583;stroke-linecap:butt;stroke-linejoin:miter;stroke-miterlimit:4;stroke-dasharray:0.264583, 0.529166;stroke-dashoffset:0;stroke-opacity:1;marker-start:url(#Scissors);marker-mid:url(#Scissors)"
       d="M 124.51765,66.861748 V 54.023651"
       id="path34121"
       sodipodi:nodetypes="cc" />
  </g>
</svg>
